X: 1
T:Cosgrove's Schottiche
M:4/4
L:1/8
S:Basil Cosgrove
R:Schottische
A:New England, New South Wales, Australia
Z:Transcribed into ABC by John Furlonger
K:D
A/2|:B>A (3FAF D>F A>A|d>d e>d B2- (3BcB|A>c e>f g>e (3ABc|d>e f>d A2- A>A|
B>A (3FAF D>F A>A|d>d e>d B2- (3BcB|A>c e>f g>e (3ABc|d>f e>c d2 e2|
f2 f>e (3faf d>c|d>f e>d B2- (3BcB|A>c e>f (3gec (3ABc|d>e f>d A2- A>e|
(3fef (3fef (3faf d>c|d>f e>d B2- (3BcB|A>c e>f g>e (3ABc|(3def e>c d2 A3/2:|
